X:1
T:My Celia's Charms
T:My Celia's Charms
T:Webbe
C:Webbe
%%score [ 1 2 3 4 ]
L:1/8
Q:1/4=60
M:4/4
K:A
V:1 treble nm="I"
V:2 treble nm="II"
V:3 treble nm="III"
V:4 treble nm="IV"
V:1
 E2 E2 E3 E | A2 A2 A4 | c2 A2 A3 F | d2 B2 B3 G | (A2 B) G (A2 B) G | A2 E2 !fermata!A4 :| %6
w: Would you know my|Ce- lia's charms,|would you know my|Ce- lia's charms, which|now _ ex- cite _ my|fierce a- larms.|
V:2
 z E E D C A, E2 | z A, C E A E C A, | A2 c3/2 A/ A2 A2 | B2 d B B2 B2 | A c G B A c G B | %5
w: I'm sure she's for- ti- tude,|I'm sure she's for- ti- tude and|truth, for- ti- tude and|truth, for- ti- tude and|truth, To gain the heart of ev- 'ry|
 A c G B !fermata!A4 :| %6
w: youth, of ev- 'ry youth.|
V:3
 z4 z A G B | A c z2 z4 | z A A A F D z2 | z B B B G E E E | C A, E E C A, E E | %5
w: She's on- ly|thir- ty,|She's on- ly thir- ty,|She's on- ly thir- ty lov- ers|now, The rest are gone, I can't tell|
 !fermata!E2 z E C2 A,2 :| %6
w: how. No lon- ger|
V:4
 E3 (F/G/) A2 B2 | c3 c c3/2 A/ A2 | A2 z2 z F D F | E4 z G B d | E2 E3 E E D | %5
w: Ce- lia _ ought to|strive, For cer- * tain-|ly she's fif- ty|five, she's fif- ty|five, Cer- tain- ly she's|
 C A, !fermata!E4 z2 :| %6
w: fif- ty five.|

